pub/sources/creativity-svgrepo-com.svg

<?xml version="1.0" encoding="UTF-8"?>
<svg xmlns="http://www.w3.org/2000/svg" xmlns:xlink="http://www.w3.org/1999/xlink" width="50px" height="px" viewBox="0 0 50 50" version="1.1">
<g id="surface1">
<path style=" stroke:none;fill-rule:nonzero;fill:rgb(22.352941%,22.352941%,22.745098%);fill-opacity:1;" d="M 24.996094 9.746094 C 17.367188 9.746094 11.179688 15.929688 11.179688 23.558594 C 11.179688 28.628906 13.910156 33.0625 17.984375 35.464844 L 17.984375 39.847656 C 17.984375 39.910156 17.984375 39.96875 17.988281 40.035156 C 17.992188 40.191406 18.003906 40.347656 18.019531 40.503906 C 18.351562 44.058594 21.367188 46.867188 25.003906 46.867188 C 26.933594 46.867188 28.6875 46.074219 29.960938 44.804688 C 31.085938 43.679688 31.832031 42.179688 31.992188 40.511719 C 32.007812 40.355469 32.015625 40.199219 32.023438 40.042969 C 32.023438 39.980469 32.027344 39.910156 32.027344 39.847656 L 32.027344 35.453125 L 32.054688 35.4375 C 36.101562 33.03125 38.820312 28.613281 38.820312 23.558594 C 38.808594 15.929688 32.625 9.746094 24.996094 9.746094 Z M 19.136719 37.5 L 19.199219 37.5 Z M 29.867188 39.847656 C 29.867188 40.132812 29.84375 40.410156 29.796875 40.679688 C 29.742188 40.996094 29.652344 41.304688 29.535156 41.601562 C 29.292969 42.222656 28.921875 42.796875 28.433594 43.285156 C 27.511719 44.210938 26.289062 44.71875 24.996094 44.71875 C 23.703125 44.71875 22.480469 44.210938 21.558594 43.285156 C 21.070312 42.796875 20.695312 42.222656 20.449219 41.597656 C 20.332031 41.296875 20.25 40.992188 20.195312 40.671875 C 20.148438 40.40625 20.128906 40.125 20.128906 39.847656 L 20.128906 39.417969 L 29.863281 39.417969 L 29.863281 39.847656 Z M 29.867188 38.636719 L 20.132812 38.636719 L 20.132812 36.308594 L 29.867188 36.308594 Z M 33.242188 31.808594 C 32.863281 32.1875 32.464844 32.535156 32.046875 32.851562 C 31.375 33.359375 30.660156 33.792969 29.898438 34.144531 L 29.867188 34.160156 L 29.867188 34.164062 L 20.132812 34.164062 C 19.378906 33.820312 18.671875 33.398438 18.011719 32.90625 C 17.570312 32.574219 17.148438 32.207031 16.75 31.808594 C 15.675781 30.734375 14.835938 29.488281 14.25 28.101562 C 13.636719 26.664062 13.332031 25.136719 13.332031 23.558594 C 13.332031 21.984375 13.636719 20.460938 14.25 19.019531 C 14.835938 17.632812 15.679688 16.382812 16.75 15.308594 C 17.824219 14.234375 19.066406 13.394531 20.460938 12.808594 C 21.894531 12.203125 23.421875 11.894531 25 11.894531 C 26.578125 11.894531 28.105469 12.203125 29.539062 12.808594 C 30.929688 13.394531 32.179688 14.238281 33.25 15.308594 C 34.328125 16.382812 35.164062 17.628906 35.75 19.019531 C 36.359375 20.453125 36.671875 21.984375 36.671875 23.558594 C 36.671875 25.136719 36.363281 26.660156 35.75 28.101562 C 35.15625 29.488281 34.316406 30.734375 33.242188 31.808594 Z M 33.242188 31.808594 "/>
<path style=" stroke:none;fill-rule:nonzero;fill:rgb(90.588236%,23.137255%,21.568628%);fill-opacity:1;" d="M 24.996094 21.109375 C 23.054688 21.109375 21.480469 22.6875 21.480469 24.625 C 21.480469 26.445312 22.875 27.949219 24.652344 28.125 L 24.652344 34.164062 L 25.335938 34.164062 L 25.335938 28.125 C 27.113281 27.953125 28.511719 26.449219 28.511719 24.625 C 28.511719 22.6875 26.933594 21.109375 24.996094 21.109375 Z M 24.996094 27.359375 C 23.484375 27.359375 22.261719 26.132812 22.261719 24.625 C 22.261719 23.117188 23.484375 21.890625 24.996094 21.890625 C 26.503906 21.890625 27.730469 23.117188 27.730469 24.625 C 27.730469 26.132812 26.503906 27.359375 24.996094 27.359375 Z M 24.996094 27.359375 "/>
<path style=" stroke:none;fill-rule:nonzero;fill:rgb(90.588236%,23.137255%,21.568628%);fill-opacity:1;" d="M 23.078125 5.058594 C 23.074219 6.121094 23.9375 6.984375 25 6.984375 C 26.0625 6.984375 26.925781 6.121094 26.921875 5.058594 C 26.921875 3.996094 26.0625 3.132812 25 3.132812 C 23.9375 3.132812 23.074219 3.996094 23.078125 5.058594 Z M 23.078125 5.058594 "/>
<path style=" stroke:none;fill-rule:nonzero;fill:rgb(90.588236%,23.137255%,21.568628%);fill-opacity:1;" d="M 10 10.472656 C 10 11.535156 10.859375 12.398438 11.921875 12.398438 C 12.988281 12.398438 13.847656 11.535156 13.847656 10.472656 C 13.847656 9.410156 12.988281 8.550781 11.921875 8.550781 C 10.859375 8.550781 10 9.410156 10 10.472656 Z M 10 10.472656 "/>
<path style=" stroke:none;fill-rule:nonzero;fill:rgb(90.588236%,23.137255%,21.568628%);fill-opacity:1;" d="M 4.585938 23.546875 C 4.585938 24.609375 5.445312 25.46875 6.507812 25.46875 C 7.570312 25.46875 8.433594 24.609375 8.433594 23.546875 C 8.433594 22.480469 7.570312 21.621094 6.507812 21.621094 C 5.445312 21.621094 4.585938 22.480469 4.585938 23.546875 Z M 4.585938 23.546875 "/>
<path style=" stroke:none;fill-rule:nonzero;fill:rgb(90.588236%,23.137255%,21.568628%);fill-opacity:1;" d="M 41.566406 23.546875 C 41.566406 24.609375 42.429688 25.46875 43.492188 25.46875 C 44.554688 25.46875 45.414062 24.609375 45.414062 23.546875 C 45.414062 22.480469 44.554688 21.621094 43.492188 21.621094 C 42.429688 21.621094 41.566406 22.480469 41.566406 23.546875 Z M 41.566406 23.546875 "/>
<path style=" stroke:none;fill-rule:nonzero;fill:rgb(90.588236%,23.137255%,21.568628%);fill-opacity:1;" d="M 36.152344 10.472656 C 36.152344 11.535156 37.011719 12.398438 38.078125 12.398438 C 39.140625 12.398438 40 11.535156 40 10.472656 C 40 9.410156 39.140625 8.550781 38.078125 8.550781 C 37.011719 8.550781 36.152344 9.410156 36.152344 10.472656 Z M 36.152344 10.472656 "/>
</g>
</svg>

<svg xmlns="http://www.w3.org/2000/svg" width="50" height="px" viewBox="0 0 50 50"><path d="M24.996 9.746c-7.629 0-13.816 6.184-13.816 13.813 0 5.07 2.73 9.503 6.804 11.906v4.383a6.294 6.294 0 00.035.656c.333 3.555 3.348 6.363 6.985 6.363 1.93 0 3.683-.793 4.957-2.062a7.014 7.014 0 002.031-4.293c.016-.157.024-.313.031-.469 0-.063.004-.133.004-.195v-4.395l.028-.016c4.047-2.406 6.765-6.824 6.765-11.878-.011-7.63-6.195-13.813-13.824-13.813zM19.136 37.5h.063zm10.731 2.348a4.689 4.689 0 01-.332 1.754 4.894 4.894 0 01-1.101 1.683 4.823 4.823 0 01-3.438 1.434 4.823 4.823 0 01-3.437-1.434 4.951 4.951 0 01-1.11-1.687 4.706 4.706 0 01-.32-1.75v-.43h9.734v.43zm0-1.211h-9.734v-2.328h9.734zm3.375-6.828a11.664 11.664 0 01-3.344 2.336l-.03.015v.004h-9.735a11.583 11.583 0 01-2.121-1.258 11.92 11.92 0 01-1.262-1.097 11.607 11.607 0 01-2.5-3.707 11.502 11.502 0 01-.918-4.543c0-1.575.305-3.098.918-4.54a11.688 11.688 0 012.5-3.71 11.538 11.538 0 013.71-2.5 11.604 11.604 0 014.54-.914 11.605 11.605 0 018.25 3.414 11.518 11.518 0 012.5 3.71c.61 1.434.922 2.965.922 4.54a11.52 11.52 0 01-.922 4.543 11.759 11.759 0 01-2.508 3.707zm0 0" fill="#39393a"/><path d="M24.996 21.11a3.518 3.518 0 00-3.516 3.515 3.525 3.525 0 003.172 3.5v6.04h.684v-6.04a3.523 3.523 0 003.176-3.5 3.52 3.52 0 00-3.516-3.516zm0 6.25a2.735 2.735 0 11.001-5.47 2.735 2.735 0 010 5.47zM23.078 5.059a1.921 1.921 0 103.844 0 1.921 1.921 0 10-3.844 0zM10 10.473a1.924 1.924 0 103.848.004A1.924 1.924 0 0010 10.473zM4.586 23.547a1.924 1.924 0 103.848-.004 1.924 1.924 0 00-3.848.004zm36.98 0a1.924 1.924 0 103.848-.004 1.924 1.924 0 00-3.848.004zm-5.414-13.074a1.925 1.925 0 103.85.002 1.925 1.925 0 00-3.85-.002zm0 0" fill="#e73b37"/></svg>
